urcenter/urcenter/img/icons/icon-3.svg

<svg width="53" height="40" viewBox="0 0 53 40" fill="none" xmlns="http://www.w3.org/2000/svg">
<path d="M39.9775 20C39.9775 30.9344 31.0739 39.8 20.0888 39.8C9.10367 39.8 0.2 30.9344 0.2 20C0.2 9.0656 9.10367 0.2 20.0888 0.2C31.0739 0.2 39.9775 9.0656 39.9775 20Z" fill="#F4F7FA" stroke="black" stroke-width="0.4"/>
<path d="M36.5582 19.9999C36.5582 29.0542 29.1855 36.3957 20.0888 36.3957C10.9922 36.3957 3.61943 29.0542 3.61943 19.9999C3.61943 10.9456 10.9922 3.60417 20.0888 3.60417C29.1855 3.60417 36.5582 10.9456 36.5582 19.9999Z" stroke="black" stroke-opacity="0.3" stroke-width="0.4"/>
<path d="M52.7998 20C52.7998 30.9344 43.8961 39.8 32.911 39.8C21.9259 39.8 13.0223 30.9344 13.0223 20C13.0223 9.0656 21.9259 0.2 32.911 0.2C43.8961 0.2 52.7998 9.0656 52.7998 20Z" fill="#F4F7FA" stroke="black" stroke-width="0.4"/>
<path d="M49.8084 19.9999C49.8084 29.0542 42.4356 36.3957 33.339 36.3957C24.2423 36.3957 16.8696 29.0542 16.8696 19.9999C16.8696 10.9456 24.2423 3.60417 33.339 3.60417C42.4356 3.60417 49.8084 10.9456 49.8084 19.9999Z" stroke="black" stroke-width="0.4"/>
<path d="M32.6485 29.471V27.2533C30.7016 27.0045 28.9742 26.3092 27.4665 25.1674L29.1792 22.6642C30.4381 23.6157 31.6311 24.2086 32.7582 24.4428V20.9516C31.1187 20.5124 29.9184 19.9415 29.1572 19.2389C28.4107 18.5216 28.0374 17.5262 28.0374 16.2527C28.0374 15.0523 28.4546 14.0716 29.289 13.3104C30.1233 12.5492 31.2432 12.0954 32.6485 11.949V10.6755H34.932V11.9929C36.4105 12.1979 37.7719 12.7395 39.0161 13.6178L37.545 16.1868C36.6081 15.5573 35.7005 15.1255 34.8222 14.8913V18.2069C36.5056 18.6607 37.7206 19.2608 38.4672 20.0074C39.2137 20.7393 39.587 21.7274 39.587 22.9716C39.587 24.172 39.1625 25.1527 38.3135 25.9139C37.4791 26.6751 36.3519 27.1362 34.932 27.2973V29.471H32.6485ZM32.7582 17.6579V14.6937C31.7482 14.8254 31.2432 15.2939 31.2432 16.099C31.2432 16.4503 31.3456 16.7504 31.5506 16.9992C31.7702 17.2334 32.1727 17.453 32.7582 17.6579ZM34.8222 24.5526C35.8616 24.3916 36.3812 23.9085 36.3812 23.1034C36.3812 22.7228 36.2641 22.4154 36.0299 22.1812C35.8103 21.9323 35.4078 21.6981 34.8222 21.4785V24.5526Z" fill="url(#paint0_linear)"/>
<defs>
<linearGradient id="paint0_linear" x1="33.3391" y1="15.3192" x2="33.3391" y2="24.6809" gradientUnits="userSpaceOnUse">
<stop stop-color="#4614E8"/>
<stop offset="1" stop-color="#BCA7FF"/>
</linearGradient>
</defs>
</svg>

<svg width="53" height="40" fill="none" xmlns="http://www.w3.org/2000/svg"><path d="M39.977 20c0 10.934-8.903 19.8-19.888 19.8C9.104 39.8.2 30.934.2 20 .2 9.066 9.104.2 20.089.2S39.978 9.066 39.978 20z" fill="#F4F7FA" stroke="#000" stroke-width=".4"/><path d="M36.558 20c0 9.054-7.372 16.396-16.47 16.396C10.993 36.396 3.62 29.054 3.62 20c0-9.054 7.373-16.396 16.47-16.396 9.097 0 16.47 7.342 16.47 16.396z" stroke="#000" stroke-opacity=".3" stroke-width=".4"/><path d="M52.8 20c0 10.934-8.904 19.8-19.889 19.8S13.022 30.934 13.022 20C13.022 9.066 21.926.2 32.911.2S52.8 9.066 52.8 20z" fill="#F4F7FA" stroke="#000" stroke-width=".4"/><path d="M49.808 20c0 9.054-7.372 16.396-16.469 16.396-9.097 0-16.47-7.342-16.47-16.396 0-9.054 7.373-16.396 16.47-16.396 9.097 0 16.47 7.342 16.47 16.396z" stroke="#000" stroke-width=".4"/><path d="M32.648 29.471v-2.218c-1.946-.248-3.674-.944-5.182-2.086l1.713-2.503c1.26.952 2.452 1.545 3.58 1.779v-3.491c-1.64-.44-2.84-1.01-3.602-1.713-.746-.717-1.12-1.713-1.12-2.986 0-1.2.418-2.181 1.252-2.943.834-.76 1.954-1.215 3.36-1.361v-1.274h2.283v1.318a9.176 9.176 0 014.084 1.625l-1.471 2.569c-.937-.63-1.845-1.062-2.723-1.296v3.316c1.684.454 2.899 1.054 3.645 1.8.747.732 1.12 1.72 1.12 2.965 0 1.2-.425 2.18-1.274 2.942-.834.761-1.961 1.222-3.381 1.383v2.174h-2.284zm.11-11.813v-2.964c-1.01.131-1.515.6-1.515 1.405 0 .351.103.651.308.9.22.234.622.454 1.207.659zm2.064 6.895c1.04-.161 1.56-.645 1.56-1.45 0-.38-.118-.688-.352-.922-.22-.249-.622-.483-1.208-.703v3.075z" fill="url(#paint0_linear)"/><defs><linearGradient id="paint0_linear" x1="33.339" y1="15.319" x2="33.339" y2="24.681" gradientUnits="userSpaceOnUse"><stop stop-color="#4614E8"/><stop offset="1" stop-color="#BCA7FF"/></linearGradient></defs></svg>
